svg/requestrr.svg

<svg xmlns="http://www.w3.org/2000/svg" width="797.203" height="741.517" style="isolation:isolate" viewBox="-14.89 -13.85 597.902 556.138"><defs><clipPath id="a"><path d="M-14.89-13.85h597.902v556.138H-14.89z"/></clipPath></defs><g clip-path="url(#a)" style="isolation:isolate"><linearGradient id="b" x1="0" x2=".549" y1=".5" y2="1.09" gradientTransform="matrix(597.902 0 0 556.138 -14.89 -13.85)" gradientUnits="userSpaceOnUse"><stop offset="0%" style="stop-color:#a077e1"/><stop offset="100%" style="stop-color:#532297"/></linearGradient><path fill="url(#b)" fill-rule="evenodd" d="M159.572 311.781q-.164-.225-.324-.452l-63.367 44.816c-21.356-30.234-33.906-67.121-33.906-106.917 0-102.448 83.175-185.623 185.623-185.623 17.251 0 33.956 2.359 49.809 6.771l-.02.07c38.58 11.336 61.292 51.52 50.828 90.571a74 74 0 0 1-11.787 24.644q.286.391.566.788l62.346-44.102c21.34 30.227 33.881 67.101 33.881 106.881 0 102.448-83.175 185.623-185.623 185.623-16.962 0-33.396-2.28-49.011-6.55l.004-.015c-39.054-11.02-62.145-51.482-51.61-90.797 2.572-9.601 6.915-18.258 12.591-25.708m306.261 82.679 81.048 81.048 36.131 36.131-114.383 30.649-75.332-75.332c-41.695 27.896-91.812 44.17-145.699 44.17-144.871 0-262.488-117.617-262.488-262.488S102.727-13.85 247.598-13.85s262.488 117.617 262.488 262.488c0 53.94-16.306 104.102-44.253 145.822"/><linearGradient id="c" x1="1.847" x2="-1.006" y1="2.1" y2="-.371" gradientTransform="matrix(156.129 0 0 180.282 193.61 159.087)" gradientUnits="userSpaceOnUse"><stop offset="0%" style="stop-color:#532297"/><stop offset="97.391%" style="stop-color:#a077e1"/></linearGradient><path fill="url(#c)" d="m336.417 256.92-64.742 37.379-64.742 37.379c-7.353 4.245-13.323.798-13.323-7.692V174.47c0-8.49 5.97-11.937 13.323-7.691l64.742 37.379 64.742 37.379c7.353 4.245 7.353 11.138 0 15.383"/></g></svg>

<svg xmlns="http://www.w3.org/2000/svg" xmlns:xlink="http://www.w3.org/1999/xlink" style="isolation:isolate" width="797.203" height="741.517" viewBox="-14.89 -13.85 597.902 556.138"><defs><clipPath id="_clipPath_kxzbGs1Hee9e3zvHrniW5FQL5aez2ahl"><rect width="597.902" height="556.138" x="-14.89" y="-13.85"/></clipPath></defs><g clip-path="url(#_clipPath_kxzbGs1Hee9e3zvHrniW5FQL5aez2ahl)"><g style="isolation:isolate"><linearGradient id="_lgradient_0" x1="0" x2=".549" y1=".5" y2="1.09" gradientTransform="matrix(597.902,0,0,556.138,-14.89,-13.85)" gradientUnits="userSpaceOnUse"><stop offset="0%" stop-opacity="1" style="stop-color:#a077e1"/><stop offset="100%" stop-opacity="1" style="stop-color:#532297"/></linearGradient><path fill="url(#_lgradient_0)" fill-rule="evenodd" d="M 159.572 311.781 C 159.462 311.631 159.355 311.48 159.248 311.329 L 95.881 356.145 C 74.525 325.911 61.975 289.024 61.975 249.228 L 61.975 249.228 C 61.975 146.78 145.15 63.605 247.598 63.605 C 264.849 63.605 281.554 65.964 297.407 70.376 L 297.387 70.446 L 297.387 70.446 C 335.967 81.782 358.679 121.966 348.215 161.017 C 345.765 170.162 341.708 178.451 336.428 185.661 C 336.619 185.921 336.807 186.185 336.994 186.449 L 399.34 142.347 L 399.34 142.347 C 420.68 172.574 433.221 209.448 433.221 249.228 C 433.221 351.676 350.046 434.851 247.598 434.851 C 230.636 434.851 214.202 432.571 198.587 428.301 L 198.587 428.301 L 198.591 428.286 C 159.537 417.266 136.446 376.804 146.981 337.489 C 149.553 327.888 153.896 319.231 159.572 311.781 Z M 465.833 394.46 L 546.881 475.508 L 583.012 511.639 L 468.629 542.288 L 393.297 466.956 C 351.602 494.852 301.485 511.126 247.598 511.126 C 102.727 511.126 -14.89 393.509 -14.89 248.638 C -14.89 103.767 102.727 -13.85 247.598 -13.85 C 392.469 -13.85 510.086 103.767 510.086 248.638 C 510.086 302.578 493.78 352.74 465.833 394.46 L 465.833 394.46 L 465.833 394.46 L 465.833 394.46 L 465.833 394.46 Z"/><linearGradient id="_lgradient_1" x1="1.847" x2="-1.006" y1="2.1" y2="-.371" gradientTransform="matrix(156.129,0,0,180.282,193.61,159.087)" gradientUnits="userSpaceOnUse"><stop offset="0%" stop-opacity="1" style="stop-color:#532297"/><stop offset="97.391%" stop-opacity="1" style="stop-color:#a077e1"/></linearGradient><path fill="url(#_lgradient_1)" d="M 336.417 256.92 L 271.675 294.299 L 206.933 331.678 C 199.58 335.923 193.61 332.476 193.61 323.986 L 193.61 249.228 L 193.61 174.47 C 193.61 165.98 199.58 162.533 206.933 166.779 L 271.675 204.158 L 336.417 241.537 C 343.77 245.782 343.77 252.675 336.417 256.92 Z"/></g></g></svg>
